X:24
T:Jefferson Davis' Reel
F:http://www.hiico.com/.abc/jefferson_davis.abc
K:Am
M:4/4
L:1/8
Z:Lee Wenzbauer lee@hiico.com 19 Sep 2004
eg|: "Am" a2eg a2eg | aged c2eg | a2eg a2eg | agec "G" d2eg | "Am" a2eg a2eg | aged c2AG | ABcd ea2g |[1 e2c2 A2eg :|[2 e2c2 A2AB|: "C" c2c2 "G" d2d2 | "Am" e2e2 dcAG | ABcd ea2g | e2c2 A2AB | "C" c2c2 "G" d2d2 | "Am" e2e2 dcAG | ABcd ea2g |[1 e2c2 A2AB :|[2 e2c2 A4 |
